X:1
T:America the Beautiful
T:("Materna")
% Four-part piano arrangement for standard notation.
%%titlespace 30pt
%%LineSep 20pt
C:Katherine Lee Bates, 1904/Samuel A. Ward
S:Source "The One Hundred and One Best Songs" - The Cable Company - 1919 - Chicago, Illinois
M:4/4
L:1/4
Q:1/4=100
%%staves [(1 2) (3 4)]
%%staffsep 30pt
K:C
V:1 clef=treble
!mf!G | G > E E G | G > D D E | F G A B | G2- G
w:O beau-ti-ful for spa-cious skies, For am-ber waves of grain,*
w:O beau-ti-ful for pil-grim feet, Whose stern, im-pas-sioned stress*
w:O beau-ti-ful for he-roes proved In lib-er-at-ing strife*
w:O beau-ti-ful for pa-triot dream That sees be-yond the years*
V:2 clef=treble
!mf!E | E > C C E | D > B, B, B, | D D F F | (E2 F)
V:3 clef=bass
%%MIDI transpose -24
%%jsastem=dn
!mf!c' | c' > g g c' | b > g g g | b b d' d' | (c' ^a b)
V:4 clef=bass
%%MIDI transpose -24
%%jsastem=dn
!mf!c | c > c c G | d > d d G | d d G G | (c ^c d)
V:1
G | G > E E G | G > D D d | ^c d e A | d2- Hd
w:For pur-ple moun-tain maj-es-ties A-bove the fruit-ed plain!*
w:A thor-ough-fare for free-dom beat A-cross the wil-der-ness!*
w:Who more than self their coun-try loved, And mer-cy more than life.*
w:Thine al-a-bas-ter cit-ies gleam, Un-dimmed by hu-man tears!*
V:2
D | E > C C E | D > D D G | G G ^F ^F | (G ^F H=F)
V:3
b | c' > g g c' | b > b b b | b b c' c' | (b c' Hd')
V:4
G | c > c c A | d > d d d | d d d a | (g a Hb)
V:1
!f!G | e > e rd c | c > B rB c | d B A G | c- c- c
w:A-mer-i-ca! A-mer-i-ca! God shed His grace on thee,*
w:A-mer-i-ca! A-mer-i-ca! God mend thine ev-'ry flaw,*
w:A-mer-i-ca! A-mer-i-ca! May God thy gold re-fine,*
w:A-mer-i-ca! A-mer-i-ca! God shed His grace on thee,
V:2
!f!G | G > G rG E | F > G rG G | G G F F | (E E F)
V:3
!f!g | c' > rc' c' c' | d' > d' rd' c' | b b c' d' | (c' g a)
V:4
!f!g | g > re e g | g > d rd e | f g a b | (c' c c)
V:1
c | c > A A c | c > G G G | A c G d | c3 |]
w:And crown thy good with broth-er-hood, From sea to shin-ing sea!
w:Con-firm thy soul in self-con-trol, Thy lib-er-ty in law!
w:Till all suc-cess be no-ble-ness, And ev-'ry gain di-vine!
w:And crown thy good with broth-er-hood, From sea to shin-ing sea!
V:2
G | F > F F F | E > E E G | A c G F | E3 |]
V:3
_b | a > a a a | g > c' c' g | a c' g b | c'3 |]
V:4
c | f > f f d | g > g g g | a c' g G | c3 |]

%%newpage

